svg/color/med.svg

<svg height="32" viewBox="0 0 32 32" width="32" xmlns="http://www.w3.org/2000/svg"><g fill="none" fill-rule="evenodd"><circle cx="16" cy="16" fill="#00b0ff" r="16"/><path d="m24 12.0610844v8.9151606l-2.5361973 1.4805461v-5.9505959l-5.4638027 3.2704602-5.4638027-3.273617v5.953437l-2.5361973-1.4805461v-8.9148449l8 4.8049877zm-7.9691329 11.1167232 2.3389022-1.398469 2.3102625 1.398469-4.6491647 2.8221924-4.6491646-2.8221924 2.3102625-1.398469zm4.6182976-14.35561519-2.3102626 1.39846899-2.3389021-1.39846899-2.3389021 1.39846899-2.3102626-1.39846899 4.6491647-2.82219241z" fill="#fff" fill-rule="nonzero"/></g></svg>

<svg xmlns="http://www.w3.org/2000/svg" width="32" height="32" viewBox="0 0 32 32">
  <g fill="none" fill-rule="evenodd">
    <circle cx="16" cy="16" r="16" fill="#00B0FF"/>
    <path fill="#FFF" fill-rule="nonzero" d="M24,12.0610844 L24,20.976245 L21.4638027,22.4567911 L21.4638027,16.5061952 L16,19.7766554 L10.5361973,16.5030384 L10.5361973,22.4564754 L8,20.9759293 L8,12.0610844 L16,16.8660721 L24,12.0610844 Z M16.0308671,23.1778076 L18.3697693,21.7793386 L20.6800318,23.1778076 L16.0308671,26 L11.3817025,23.1778076 L13.691965,21.7793386 L16.0308671,23.1778076 Z M20.6491647,8.82219241 L18.3389021,10.2206614 L16,8.82219241 L13.6610979,10.2206614 L11.3508353,8.82219241 L16,6 L20.6491647,8.82219241 Z"/>
  </g>
</svg>
